X:1
T:Fear Not, I Am with Thee
T:Fear Not, I Am with Thee
T:J. C. H. & V. A. White, 1896
T:Eliza Edmunds Hewitt, 1898
T:Public Domain Courtesy of the Cyber Hymnal™
T:Public Domain Courtesy of the Cyber Hymnal™
C:J. C. H. & V. A. White, 1896
Z:Public Domain
Z:Courtesy of the Cyber Hymnal™
%%score ( 1 2 ) ( 3 4 )
L:1/8
Q:1/4=107
M:6/8
K:C
V:1 treble 
V:2 treble 
V:3 bass 
V:4 bass 
V:1
 [EG]2 [EG] ([CE][EG])[Ec] | [Ge]3 [Ge]3 | [Gc]2 [Gc] (dc)[FA] | [EG]3- [EG]2 z | %4
w: 1.~“Fear not, I * am|with thee”;|Bless- èd gold- * en|ray, *|
w: 2.~Ros- es fade * a-|round me,|Li- lies bloom * and|die, *|
w: 3.~Steps un- seen * be-|fore me,|Hid- den dan- * gers|near; *|
 [FG]2 [FG] ([B,D][CE])[DF] | [FB]3 [FB]3 | [FG]2 [FG] [DG]2 [B,F] | [CE]3- [CE]2 z | %8
w: Like a star * of|glo- ry,|Light- ing up my|way! *|
w: Earth- ly sun- * beams|van- ish—|Ra- diant still the|sky! *|
w: Near- er still * my|Sav- ior,|Whis- pering, “be of|cheer”; *|
 [EG]2 [EG] ([CE][EG])[Ec] | [Ge]3 [Ge]3 | [Gc]2 [Gc] (dc)[FA] | [EG]3- [EG]2 z | %12
w: Through the clouds * of|mid- night,|This bright prom- * ise|shone, *|
w: Je- sus, Rose * of|Sha- ron,|Bloom- ing for * His|own, *|
w: Joy like birds * of|spring- time,|To my heart * have|flown, *|
 [FG]2 [FG] ([B,D][CE])[DF] | [FB]3 [FB]3 | [FG][FG][FG] [FG][FA][FB] | [Ec]3- [Ec]2 z |: %16
w: “I will ne- * ver|leave thee,|Ne- ver will leave thee a-|lone.” *|
w: Je- sus, Hea- * ven’s|sun- shine,|Ne- ver will leave me a-|lone. *|
w: Sing- ing all * so|sweet- ly,|“He will not leave me a-|lone.” *|
"^Refrain" [EG]3 [CE][EG][Ec] | ([Ge]3- [Ge][Fd][Ge]) | [Ec]2 z [Fd][Fc][FA] | [EG]3- [EG]2 [EG] | %20
w: ||||
w: No, ne- ver a-|lone, * * *|No, ne- ver a-|lone, * He|
w: ||||
 [FG]2 [FG] [B,D][CE][DF] | [FB]3 [FB]3 |1 [FG][FG][FG] [DG][DG][B,F] | [CE]3- [CE]2 z :|2 %24
w: ||||
w: prom- ised ne- ver to|leave me,|Ne- ver to leave me a-|lone. *|
w: ||||
 [FG][FG][FG] [FG][FA][FB] || [Ec]3- [Ec]4 |] %26
w: ||
w: Ne- ver to leave me a-|lone. *|
w: ||
V:2
 x6 | x6 | x3 F2 x | x6 | x6 | x6 | x6 | x6 | x6 | x6 | x3 F2 x | x6 | x6 | x6 | x6 | x6 |: x6 | %17
 x6 | x6 | x6 | x6 | x6 |1 x6 | x6 :|2 x6 || x7 |] %26
V:3
 [C,C]2 [C,C] (G,C)[C,C] | [C,C]3 [C,C]3 | [E,G,]2 [E,G,] [F,A,]2 [F,C] | [C,C]3- [C,C]2 z | %4
w: ~ ~ ~ * ~|~ ~|~ ~ ~ ~|~ *|
 [G,B,]2 [G,B,] G,2 [G,B,] | [G,,D]3 [G,,D]3 | [B,,D]2 [B,,D] [G,,B,]2 [G,,G,] | %7
w: ~ ~ ~ ~|~ ~|~ ~ ~ ~|
 [C,G,]3- [C,G,]2 z | [C,C]2 [C,C] [C,G,]2 [C,G,] | [C,C]3 [C,C]3 | [E,G,]2 [E,_B,] [F,A,]2 [F,C] | %11
w: ~ *|~ ~ ~ ~|~ ~|~ ~ ~ ~|
 [C,C]3- [C,C]2 z | [D,B,]2 [D,B,] [G,,G,]2 [G,,G,] | [G,,D]3 [G,,D]3 | %14
w: ~ *|~ ~ ~ ~|~ ~|
 [G,B,][G,B,][G,B,] [G,B,][G,C][G,D] | [C,C]3- [C,C]2 z |: [C,C][C,C][C,C] [C,G,] z2 | %17
w: ~ ~ ~ ~ ~ ~|~ *|Ne- ver a- lone,|
 [C,C][C,C][C,C] [C,C]2 z | [C,G,]2 z [F,A,][F,A,][F,C] | [C,C]3- [C,C]2 [C,C] | %20
w: ne- ver a- lone,|||
 [D,B,]2 [D,B,] [G,,G,][G,,G,][G,,G,] | [G,D]3 [G,D]3 |1 [B,,D][B,,D][B,,D] [G,,B,][G,,B,][G,,G,] | %23
w: |||
 [C,G,]3- [C,G,]2 z :|2 [G,B,][G,B,][G,B,] [G,B,][G,C][G,D] || [C,C]3- [C,C]4 |] %26
w: |||
V:4
 x3 C,2 x | x6 | x6 | x6 | x3 G,2 x | x6 | x6 | x6 | x6 | x6 | x6 | x6 | x6 | x6 | x6 | x6 |: x6 | %17
 x6 | x6 | x6 | x6 | x6 |1 x6 | x6 :|2 x6 || x7 |] %26

